X:85
T: Édesanyám valahára
O: Trunk (Bákó), 1932
Q: 1/4=120
M:3/4
L:1/4
K:F
G/G/FG | A/A/ D | C z |
F/G/A/A/ | c/B/A/(G//F//) |
F/G/G/G/ | A/F/ _E | D z |

